_includes/icons/ios-microphone.svg

<svg fill="#666" height="50" viewBox="0 0 50 50" width="50" xmlns="http://www.w3.org/2000/svg"><path d="m25-.03125c-6.0625 0-11.03125 4.804688-11.03125 10.75v12.5625c0 5.945313 4.96875 10.75 11.03125 10.75s11.03125-4.804687 11.03125-10.75v-12.5625c0-5.945312-4.96875-10.75-11.03125-10.75zm0 2.0625c4.984375 0 8.96875 3.882813 8.96875 8.6875v.28125h-5.46875c-.03125 0-.0625 0-.09375 0-.550781.027344-.980469.496094-.953125 1.046875s.496094.980469 1.046875.953125h5.46875v2h-5.46875c-.03125 0-.0625 0-.09375 0-.550781.027344-.980469.496094-.953125 1.046875s.496094.980469 1.046875.953125h5.46875v2h-5.46875c-.03125 0-.0625 0-.09375 0-.550781.027344-.980469.496094-.953125 1.046875s.496094.980469 1.046875.953125h5.46875v2.28125c0 4.804688-3.984375 8.6875-8.96875 8.6875s-8.96875-3.882812-8.96875-8.6875v-2.28125h5.46875c.359375.003906.695313-.183594.878906-.496094.179688-.3125.179688-.695312 0-1.007812-.183593-.3125-.519531-.5-.878906-.496094h-5.46875v-2h5.46875c.359375.003906.695313-.183594.878906-.496094.179688-.3125.179688-.695312 0-1.007812-.183593-.3125-.519531-.5-.878906-.496094h-5.46875v-2h5.46875c.359375.003906.695313-.183594.878906-.496094.179688-.3125.179688-.695312 0-1.007812-.183593-.3125-.519531-.5-.878906-.496094h-5.46875v-.28125c0-4.804687 3.984375-8.6875 8.96875-8.6875zm-15.1875 15.09375c-.410156.085938-.699219.457031-.6875.875v5c0 7.703125 5.546875 14.167969 12.84375 15.59375v6.40625h-6.5c-1.902344 0-3.46875 1.570313-3.46875 3.46875v1.46875h25.875v-1.46875c0-1.898437-1.566406-3.46875-3.46875-3.46875h-6.375v-6.40625c7.296875-1.425781 12.84375-7.890625 12.84375-15.59375v-5c0-.484375-.390625-.875-.875-.875s-.875.390625-.875.875v5c0 7.800781-6.324219 14.125-14.125 14.125s-14.125-6.324219-14.125-14.125v-5c.003906-.25-.101562-.488281-.285156-.65625-.1875-.167969-.433594-.25-.683594-.21875-.03125 0-.0625 0-.09375 0zm14.21875 21.6875c.320313.019531.644531.0625.96875.0625s.648438-.042969.96875-.0625v6.15625h-1.9375zm-8.5625 8.1875h7.28125c.082031.019531.164063.03125.25.03125h4c.074219-.003906.148438-.011719.21875-.03125h7.1875c.640625 0 1.066406.421875 1.28125.96875h-21.5c.214844-.546875.636719-.96875 1.28125-.96875z"/></svg>

<svg xmlns="http://www.w3.org/2000/svg" viewBox="0 0 50 50" width="50" height="50" fill="#666"><path d="M 25 -0.03125 C 18.9375 -0.03125 13.96875 4.773438 13.96875 10.71875 L 13.96875 23.28125 C 13.96875 29.226563 18.9375 34.03125 25 34.03125 C 31.0625 34.03125 36.03125 29.226563 36.03125 23.28125 L 36.03125 10.71875 C 36.03125 4.773438 31.0625 -0.03125 25 -0.03125 Z M 25 2.03125 C 29.984375 2.03125 33.96875 5.914063 33.96875 10.71875 L 33.96875 11 L 28.5 11 C 28.46875 11 28.4375 11 28.40625 11 C 27.855469 11.027344 27.425781 11.496094 27.453125 12.046875 C 27.480469 12.597656 27.949219 13.027344 28.5 13 L 33.96875 13 L 33.96875 15 L 28.5 15 C 28.46875 15 28.4375 15 28.40625 15 C 27.855469 15.027344 27.425781 15.496094 27.453125 16.046875 C 27.480469 16.597656 27.949219 17.027344 28.5 17 L 33.96875 17 L 33.96875 19 L 28.5 19 C 28.46875 19 28.4375 19 28.40625 19 C 27.855469 19.027344 27.425781 19.496094 27.453125 20.046875 C 27.480469 20.597656 27.949219 21.027344 28.5 21 L 33.96875 21 L 33.96875 23.28125 C 33.96875 28.085938 29.984375 31.96875 25 31.96875 C 20.015625 31.96875 16.03125 28.085938 16.03125 23.28125 L 16.03125 21 L 21.5 21 C 21.859375 21.003906 22.195313 20.816406 22.378906 20.503906 C 22.558594 20.191406 22.558594 19.808594 22.378906 19.496094 C 22.195313 19.183594 21.859375 18.996094 21.5 19 L 16.03125 19 L 16.03125 17 L 21.5 17 C 21.859375 17.003906 22.195313 16.816406 22.378906 16.503906 C 22.558594 16.191406 22.558594 15.808594 22.378906 15.496094 C 22.195313 15.183594 21.859375 14.996094 21.5 15 L 16.03125 15 L 16.03125 13 L 21.5 13 C 21.859375 13.003906 22.195313 12.816406 22.378906 12.503906 C 22.558594 12.191406 22.558594 11.808594 22.378906 11.496094 C 22.195313 11.183594 21.859375 10.996094 21.5 11 L 16.03125 11 L 16.03125 10.71875 C 16.03125 5.914063 20.015625 2.03125 25 2.03125 Z M 9.8125 17.125 C 9.402344 17.210938 9.113281 17.582031 9.125 18 L 9.125 23 C 9.125 30.703125 14.671875 37.167969 21.96875 38.59375 L 21.96875 45 L 15.46875 45 C 13.566406 45 12 46.570313 12 48.46875 L 12 49.9375 L 37.875 49.9375 L 37.875 48.46875 C 37.875 46.570313 36.308594 45 34.40625 45 L 28.03125 45 L 28.03125 38.59375 C 35.328125 37.167969 40.875 30.703125 40.875 23 L 40.875 18 C 40.875 17.515625 40.484375 17.125 40 17.125 C 39.515625 17.125 39.125 17.515625 39.125 18 L 39.125 23 C 39.125 30.800781 32.800781 37.125 25 37.125 C 17.199219 37.125 10.875 30.800781 10.875 23 L 10.875 18 C 10.878906 17.75 10.773438 17.511719 10.589844 17.34375 C 10.402344 17.175781 10.15625 17.09375 9.90625 17.125 C 9.875 17.125 9.84375 17.125 9.8125 17.125 Z M 24.03125 38.8125 C 24.351563 38.832031 24.675781 38.875 25 38.875 C 25.324219 38.875 25.648438 38.832031 25.96875 38.8125 L 25.96875 44.96875 L 24.03125 44.96875 Z M 15.46875 47 L 22.75 47 C 22.832031 47.019531 22.914063 47.03125 23 47.03125 L 27 47.03125 C 27.074219 47.027344 27.148438 47.019531 27.21875 47 L 34.40625 47 C 35.046875 47 35.472656 47.421875 35.6875 47.96875 L 14.1875 47.96875 C 14.402344 47.421875 14.824219 47 15.46875 47 Z"/></svg>
